tools/download-figma-icons/icons/solid/food-2.svg

<svg xmlns="http://www.w3.org/2000/svg" width="24" height="24" fill="none" viewBox="0 0 24 24"><path fill="currentColor" fill-rule="evenodd" d="M9 21c4.965 0 9-4.035 9-9s-4.035-9-9-9-9 4.035-9 9 4.035 9 9 9m14.25-1.875v-7.5c0-.765-.465-1.425-1.125-1.717V8.85C23.205 8.46 24 7.26 24 5.828 24 4.44 23.017 3 21.375 3c-1.703 0-2.625 1.455-2.625 2.827 0 1.748.878 2.723 1.875 3.046v1.035a1.88 1.88 0 0 0-1.125 1.717v7.5a1.876 1.876 0 0 0 3.75 0" clip-rule="evenodd"/></svg>

<svg width="24" height="24" viewBox="0 0 24 24" fill="none" xmlns="http://www.w3.org/2000/svg">
<path fill-rule="evenodd" clip-rule="evenodd" d="M9 21C13.965 21 18 16.965 18 12C18 7.035 13.965 3 9 3C4.035 3 0 7.035 0 12C0 16.965 4.035 21 9 21ZM23.25 19.125V11.625C23.25 10.86 22.785 10.2 22.125 9.9075V8.85C23.205 8.46 24 7.26 24 5.8275C24 4.44 23.0175 3 21.375 3C19.6725 3 18.75 4.455 18.75 5.8275C18.75 7.575 19.6275 8.55 20.625 8.8725V9.9075C19.965 10.2 19.5 10.86 19.5 11.625V19.125C19.5 20.16 20.34 21 21.375 21C22.41 21 23.25 20.16 23.25 19.125Z" fill="black"/>
</svg>
